X:1
T:Title
%%score ( 1 2 3 ) { 4 | 5 }
L:1/8
Q:1/4=105
M:4/4
K:F
V:1 treble nm="Grand Piano, Soprano"
V:2 treble 
V:3 treble 
V:4 bass nm="Choir Pad, Bass"
V:5 bass 
V:1
 [CF][CG] [FA]2 [Fc]2 [CF]2 | [CF][CG] [FA]2 [Ac]2 [Bd][Ac] | [Bd][Bf] [Ac]2 [FA]2 [CF]2- | %3
w: By~Daniel~Brink~Towner * * * *|||
 [CF][FA] [EG]6 | [CF][CG] [FA]2 [Fc]2 [CF]2 | [CF][CG] [FA]2 [Ac]2 [Bd][Ac] | %6
w: |||
 [Bd][Bf] [Ac]2 [FA]2 [EG]2- | [EG]F F6 | z2 .c4 c2- | c2 .d4 z2 | z4 z2 A2 | z2 G2 z2 c2- | %12
w: ||||||
 c2 .c4 c2- | c2 .d4 z2 | z4 z2 A2- | A z z2 z4 | z8 |] %17
w: |||||
V:2
 x8 | x8 | x8 | x8 | x8 | x8 | x8 | x8 | z2 FF F[FA] F2 | F2 FF F[FB] [Fd]2 | %10
 [Be][Be] [Af]2 [Fc]2 C2- | [CF]2 EE GG F2 | E2 FF F[FA] F2 | F2 FF F[FB] [Fd]2 | %14
 [Be][Be] [Af]2 [Fc]2 F2 | z G .F2 DD C2- | C2 z2 z4 |] %17
V:3
 x8 | x8 | x8 | x8 | x8 | x8 | x8 | x8 | x8 | x8 | x8 | x8 | x8 | x8 | x8 | E2 z F- F4- | %16
 F2 z2 z4 |] %17
V:4
 A,B, C2 A,2 A,2 | A,B, C2 A,2 F,F, | F,F, F,2 C2 A,2- | A,[K:treble]C C6 | %4
 A,B, C2[K:bass] A,2 A,2 | A,B, C2[K:treble] F2 FF | FD F2[K:bass] C2 B,2- | B,A, A,6 | %8
 z2 A,2- A,/ z/ C A,2- | A,2 z2 z[K:treble] D B,2 | CC C2[K:bass] A,2 F,2 | A,2 C6 | %12
 B,2 A,2- A,/ z/ C A,2- | A,2 z2 z[K:treble] D B,2 | CC C2[K:bass] A,2 C2 | B,2 A,A, B,B, A,2- | %16
 A,2 z2 z4 |] %17
V:5
 F,F, F,2 F,2 F,2 | F,F, F,2 F,2 z2 | B,,D, z2 F,2 F,2- | F,F, C,6 | F,F, F,2 F,2 F,2 | %5
 F,F, F,2 F,2 F,F, | B,B, C2 z2 C,2- | C,F, F,6 | z2 F,F, F,F, F,2 | F,2 B,B, B,B, z2 | %10
 G,G, F,4 z2 | z2 C,C, B,B, A,2 | G,2 F,F, F,F, F,2 | F,2 B,B, B,B, z2 | G,G, F,2 F,2 C,2 | %15
 C,2 [G,,F,][G,,F,] [F,,F,][F,,F,] [F,,F,]2- | [F,,F,]2 z2 z4 |] %17

